.local/share/icons/Gruvbox-Plus-Dark/actions/16/vmware-component.svg

<svg xmlns="http://www.w3.org/2000/svg" width="16" height="16" version="1.1">
 <defs>
  <style id="current-color-scheme" type="text/css">
   .ColorScheme-Text { color:#555555; } .ColorScheme-Highlight { color:#4285f4; } .ColorScheme-NeutralText { color:#ff9800; } .ColorScheme-PositiveText { color:#4caf50; } .ColorScheme-NegativeText { color:#f44336; }
  </style>
 </defs>
 <path style="fill:currentColor" class="ColorScheme-Text" d="M 6.203125,1.0002119 4.2792969,1.6142588 C 0.21368673,2.9265448 0.08235,2.9732213 0.03125,3.1279306 -0.00739,3.2448503 0.1540525,3.4367839 0.8515625,4.1083994 1.3288925,4.568007 1.71875,4.978358 1.71875,5.0205088 c 0,0.042146 -0.386475,0.438281 -0.859375,0.8808593 C 0.386485,6.3439453 0,6.7488998 0,6.8017588 c 0,0.052863 0.05429375,0.141109 0.12109375,0.1953124 0.06676,0.054201 1.43793505,0.5247705 3.04687505,1.0449219 1.6089399,0.5201514 2.9568406,0.9480987 2.9941406,0.9511719 0.03731,0.00312 0.466135,-0.3720547 0.953125,-0.8339844 L 8,7.3173838 8.8945312,8.1669931 C 9.3865317,8.6336833 9.8318656,9.0001351 9.8847656,8.9814462 9.9376256,8.9627563 11.276205,8.5348917 12.859375,8.0302744 15.589975,7.1599298 16,7.0007156 16,6.8134775 16,6.7695894 15.613515,6.3640032 15.140625,5.9111338 14.667725,5.4582641 14.28125,5.0561411 14.28125,5.0166025 c 0,-0.039543 0.389857,-0.4485955 0.867188,-0.9082031 C 15.844758,3.437921 16.00725,3.2443355 15.96875,3.1279306 15.93023,3.0113904 15.491018,2.8417928 13.736328,2.2666025 12.534898,1.8727757 11.155575,1.4247358 10.671875,1.2724619 L 9.7929688,1.0041181 8.8964844,1.8564462 8,2.7138681 7.1015625,1.85254 Z M 8.0136719,2.993165 10.244141,3.7353525 c 1.226188,0.4075587 2.241181,0.751158 2.255859,0.765625 0.01472,0.014463 -0.968035,0.3524398 -2.183594,0.75 C 9.1008468,5.6485375 8.0745856,5.9825552 8.0351562,5.993165 7.9460425,6.017126 3.4594194,4.5389642 3.5,4.4990244 3.516204,4.4831004 4.5402554,4.1375422 5.7734375,3.7314462 Z M 8,8.6982431 7.8027344,8.88379 C 7.5511703,9.1224087 7.316254,9.3388138 7.1289062,9.5029306 c -0.093674,0.082058 -0.173593,0.1504285 -0.25,0.2109375 -0.038203,0.030254 -0.072915,0.05625 -0.1289062,0.09375 -0.027996,0.01875 -0.057715,0.041062 -0.1230469,0.074219 -0.032666,0.016578 -0.073706,0.036528 -0.1464843,0.060547 C 6.4440799,9.9543919 6.3984755,9.9666 6.3359375,9.97754 6.2738723,9.9883971 6.0835481,9.989295 6.0800781,9.9892588 6.0789125,9.9891626 5.9334905,9.966735 5.9140625,9.961915 5.8946335,9.957096 5.8826626,9.9534165 5.8710938,9.9501962 5.8479558,9.9437534 5.8277854,9.938145 5.8027344,9.930665 5.7526317,9.915707 5.6876729,9.8969856 5.6074219,9.8720712 5.4469196,9.8222439 5.2237471,9.751593 4.9511719,9.66504 4.4060215,9.4919339 3.6672235,9.2537015 2.8613281,8.993165 2.5337971,8.8872781 2.3032741,8.8068884 2.0039062,8.7080088 c 0.0052,1.8471702 0.037212,4.3326532 0.076172,4.3925782 0.039418,0.06062 1.3630086,0.533822 2.9394531,1.052734 h 0.00195 C 6.5979853,14.672203 8.00195,15 8.00195,15 v -0.01367 c 2.078469,-0.647602 5.902347,-1.870118 5.902347,-1.870118 C 13.976486,13.027796 14,12.431619 14,10.731446 14,10.218509 13.999,9.4336774 13.996094,8.7138681 13.720427,8.8027411 13.507486,8.8733149 13.162109,8.9833994 12.370713,9.235648 11.642233,9.4694053 11.103516,9.6416025 10.834157,9.7277015 10.612015,9.7982549 10.455078,9.8486338 10.29814,9.8990097 10.111471,9.962736 10.21875,9.9248056 10.217923,9.9250976 10.05161,9.97058 9.984375,9.97754 9.917134,9.98449 9.860788,9.9826731 9.8125,9.9794931 9.7159111,9.9731347 9.6512824,9.9588699 9.5996094,9.9443369 9.4962625,9.9152699 9.4430935,9.8866657 9.3984375,9.8642588 9.3091255,9.8194452 9.2607545,9.7870746 9.2109375,9.7529306 9.1113032,9.6846426 9.0229611,9.6149794 8.9199219,9.5302744 8.7138435,9.3608646 8.467614,9.1407331 8.2070312,8.8935556 Z"/>
</svg>

<svg width="16" height="16" version="1.1" xmlns="http://www.w3.org/2000/svg">
  <defs>
    <style id="current-color-scheme" type="text/css">.ColorScheme-Text { color:#ebdbb2; } .ColorScheme-Highlight { color:#458588; }</style>
  </defs>
  <path class="ColorScheme-Text" d="m6.203 1-1.924 0.614c-4.066 1.312-4.197 1.359-4.248 1.514-0.03864 0.1169 0.1228 0.3089 0.8203 0.9805 0.4773 0.4596 0.8672 0.87 0.8672 0.9121 0 0.04215-0.3865 0.4383-0.8594 0.8809s-0.8594 0.8475-0.8594 0.9004c0 0.05286 0.05429 0.1411 0.1211 0.1953 0.06676 0.0542 1.438 0.5248 3.047 1.045s2.994 0.9512 2.994 0.9512l1.838-1.676 1.885 1.664s0.6734-0.218 2.975-0.9512c2.731-0.8703 3.141-1.03 3.141-1.217 0-0.04389-0.3865-0.4495-0.8594-0.9023-0.4729-0.4529-0.8594-0.855-0.8594-0.8945 0-0.03954 0.3899-0.4486 0.8672-0.9082 0.6963-0.6705 0.8588-0.8641 0.8203-0.9805-0.03852-0.1165-0.4777-0.2861-2.232-0.8613-1.201-0.3938-2.581-0.8419-3.064-0.9941l-0.8789-0.2683-1.793 1.71zm1.811 1.993 4.486 1.508-4.5 1.492-4.5-1.494zm-0.01367 5.705s-0.579 0.5383-0.8711 0.8046c-0.4486 0.393-0.6098 0.4913-1.049 0.4863-0.1084-0.008942-0.2607-0.05137-0.4726-0.1172-0.8984-0.2789-1.842-0.5821-3.604-1.164 0.0052 1.847 0.00205 4.243 0.07617 4.393 0.008967-0.001155 5.92 1.899 5.92 1.899l5.903-1.883c0.1084-0.1328 0.09668-2.624 0.0918-4.403-1.258 0.4074-2.518 0.8072-3.778 1.211-0.01865 0.00659-0.1998 0.06828-0.4063 0.05468-0.3146-0.02071-0.5375-0.1572-0.8926-0.4492-0.1761-0.1447-0.9182-0.832-0.9182-0.832z" fill="currentColor"/>
</svg>
